X:1
T:None but Christ, CMD
T:James McGrahanan, 1879
T:None but Christ, CMD
T:Public Domain
C:James McGrahanan, 1879
Z:Public Domain
%%score ( 1 2 ) ( 3 4 )
L:1/8
M:4/4
K:F
V:1 treble 
V:2 treble 
V:3 bass 
V:4 bass 
V:1
 (CF) | [FA]2 [FA]2 [EA]2 (FA) | [Ec]2 [Fc]2 [Gc]2 (cA) | [FG]3 [FG] (FE)([DF][EG]) | [FA]6 (CF) | %5
 [FA]2 [FA]2 [EA]2 (FA) | [Ec]2 [Fc]2 [Gc]2 (cA) | E2 z c (c=B)(AB) x | E2 F2 G2 [Ec]2 | %9
 [Fc]3 [Ec] (cA)(dc) | F2 z B [FA]2 (F[EG]) | [FA]3 [FA] ([FA][Ac])([GB][FA]) | [EG]6 C2 | %13
 F3 F [FA]3 [FA] | (cAB)[Fc] [Fd]2 [Ed]2 | (cA)([FB][DG]) [CF]2 [CE]2 | [CF]3 |] %17
V:2
 C2 | x6 F2 | x6 F2 | x4 G2 x2 | x6 C2 | x6 F2 | x6 F2 | G3 (G2 F2) F2 | c6 x2 | x4 F2 F2 | %10
 c3 (F2 x F) x | x8 | x6 C2 | F3 F x4 | F3 x5 | F2 x6 | x3 |] %17
V:3
 [F,A,]2 | [F,C]2 [D,D]2 [A,,C]2 [A,C]2 | [G,B,]2 [F,A,]2 [E,G,]2 ([F,A,][A,C]) | %3
 [B,D]3 [G,B,D] C2 [C,C]2 | [F,C]6 [F,A,]2 | [F,C]2 [D,D]2 [A,,C]2 [A,C]2 | %6
 [G,B,]2 [F,A,]2 [E,G,]2 (A,C) | G,2 z C [B,,D]2 [G,D]2 x | C2 A,2 B,2 [C,B,]2 | %9
 [F,A,]3 [G,B,] [A,C]2 (B,[A,C]) | [E,D]2 [C,C]2 [F,C]2 [A,C][G,B,] | F,2 z F, D,2 (E,[F,C]) | %12
 [C,C]6 [C,C]2 | [A,C]3 [A,C] [F,C]3 [F,C] | (A,C[B,,B,])[A,,A,] [B,,B,]2 [G,B,]2 | %15
 (A,[F,C])(D,B,,) [C,A,]2 [C,G,]2 | [F,A,]3 |] %17
V:4
 x2 | x8 | x8 | x4 C2 x2 | x8 | x8 | x6 F,2 | C3 E,2 x4 | C,6 x2 | x6 B, x | x8 | A,3 (C2 D3) | %12
 x8 | x8 | _E,2 x6 | A, B,2 x5 | x3 |] %17

